Faba/24x24/actions/mail-send.svg

<?xml version="1.0" encoding="UTF-8" standalone="no"?>
<!-- Created with Inkscape (http://www.inkscape.org/) -->

<svg
   xmlns:dc="http://purl.org/dc/elements/1.1/"
   xmlns:cc="http://creativecommons.org/ns#"
   xmlns:rdf="http://www.w3.org/1999/02/22-rdf-syntax-ns#"
   xmlns:svg="http://www.w3.org/2000/svg"
   xmlns="http://www.w3.org/2000/svg"
   xmlns:sodipodi="http://sodipodi.sourceforge.net/DTD/sodipodi-0.dtd"
   xmlns:inkscape="http://www.inkscape.org/namespaces/inkscape"
   width="24"
   height="24"
   id="svg3495"
   version="1.1"
   inkscape:version="0.48.4 r9939"
   sodipodi:docname="mail-forward.svg">
  <defs
     id="defs3497">
    <clipPath
       clipPathUnits="userSpaceOnUse"
       id="clipPath3669">
      <path
         inkscape:connector-curvature="0"
         d="M 0,96 96,96 96,0 0,0 0,96 z"
         id="path3671" />
    </clipPath>
  </defs>
  <sodipodi:namedview
     id="base"
     pagecolor="#ffffff"
     bordercolor="#666666"
     borderopacity="1.0"
     inkscape:pageopacity="0.0"
     inkscape:pageshadow="2"
     inkscape:zoom="1"
     inkscape:cx="9.1114429"
     inkscape:cy="4.6513739"
     inkscape:current-layer="layer1"
     showgrid="false"
     inkscape:grid-bbox="true"
     inkscape:document-units="px"
     inkscape:window-width="1364"
     inkscape:window-height="700"
     inkscape:window-x="0"
     inkscape:window-y="28"
     inkscape:window-maximized="1"
     inkscape:snap-bbox="true"
     inkscape:bbox-paths="true"
     inkscape:bbox-nodes="true"
     inkscape:snap-bbox-edge-midpoints="false"
     showguides="true"
     inkscape:guide-bbox="true">
    <inkscape:grid
       type="xygrid"
       id="grid3512"
       empspacing="4"
       visible="true"
       enabled="true"
       snapvisiblegridlinesonly="true"
       dotted="false" />
  </sodipodi:namedview>
  <metadata
     id="metadata3500">
    <rdf:RDF>
      <cc:Work
         rdf:about="">
        <dc:format>image/svg+xml</dc:format>
        <dc:type
           rdf:resource="http://purl.org/dc/dcmitype/StillImage" />
        <dc:title></dc:title>
      </cc:Work>
    </rdf:RDF>
  </metadata>
  <g
     id="layer1"
     inkscape:label="Layer 1"
     inkscape:groupmode="layer"
     transform="translate(1,-25)">
    <path
       style="fill:#555555;fill-opacity:1;stroke:none;display:inline;enable-background:new"
       d="m 21.25,30.535156 -20,4.179688 3.75,2.929688 0,5.820312 4.375,-2.5 0,0 -1.25,-1.367188 5.039067,3.632812 z M 19.453122,31.746094 8.3984333,38.777344 7.3046889,40.417968 6.25,41.082032 l 0,-2.929688 z"
       id="path6400"
       inkscape:connector-curvature="0"
       sodipodi:nodetypes="ccccccccccccccc" />
    <path
       sodipodi:nodetypes="ccccccccccccccc"
       inkscape:connector-curvature="0"
       id="path3828"
       d="M 21.25,29.535312 1.25,33.715 5,36.644688 5,42.465 l 4.375,-2.5 0,0 -1.25,-1.367188 5.039067,3.632812 z M 19.453122,30.74625 8.3984333,37.7775 7.3046889,39.418124 6.25,40.082188 6.25,37.1525 z"
       style="fill:#fefefe;fill-opacity:1;stroke:none;display:inline;enable-background:new;opacity:0.1" />
  </g>
</svg>

<svg xmlns="http://www.w3.org/2000/svg" viewBox="0 0 24 24"><defs><clipPath><path d="m0 96h96v-96h-96v96"/></clipPath></defs><g transform="translate(1-25)"><path d="m21.25 30.535l-20 4.18 3.75 2.93v5.82l4.375-2.5-1.25-1.367 5.04 3.633zm-1.797 1.211l-11.05 7.03-1.094 1.641-1.055.664v-2.93z" fill="#555"/><path d="m21.25 29.535l-20 4.18 3.75 2.93v5.82l4.375-2.5-1.25-1.367 5.04 3.633zm-1.797 1.211l-11.05 7.03-1.094 1.641-1.055.664v-2.93z" opacity=".1" fill="#fefefe"/></g></svg>
